X: 43
T: Away in a Manger
M: 3/4 % time signature
L: 1/4 % default length
%%staves S1 | S2 
V: S1 clef=treble 
%%MIDI beat 127 125 110 1
V: S2 clef=bass 
%%MIDI beat 127 125 110 1
K: F % key signature
%
%%MIDI program 1 0 % Piano 1
%%MIDI program 2 0 % Piano 1
%
% 1
[V: S1] [Q:1/4=100] [Ac] | [A3/2c3/2] [G/B/] [FA] | [F3/2A3/2] [E/G/] [CF] | [DF] [CE] [B,D] | [A,2C2] [A,C] | [B,3/2C3/2] [B,/D/] [B,C] |
w: 1.~A- way in a man- ger, no crib for a bed, The lit- tle Lord 
w: 2.~The cat- tle are low- ing, the Ba- by a- wakes, But lit- tle Lord 
w: 3.~Be near me, Lord Je- sus, I ask thee to stay Close by me for- 
[V: S2]  [F,,F,] | [F,,3F,3] | [F,,3F,3] | [B,,,3B,,3] | [F,,2F,2] [F,,F,] | [C,3E,3] |
% 9
[V: S1]  [B,C] [B,G] [B,E] | [B,D] [A,C] [CF] | [F2A2] [Ac] | [A3/2c3/2] [G/B/] [FA] | ([F3/2A3/2] [E/G/]) [CF] |
w: Je- sus laid down his sweet head. The stars in the sky * looked 
w: Je- sus, no cry- ing he makes; I love thee, Lord Je- sus, look 
w: ev- er, and love me, I pray; Bless all the dear child- ren in 
[V: S2]  [C,2E,2] C, | [F,,3-F,3-] | [F,,2F,2] [F,,F,] | [F,,3F,3] | [F,,3F,3] |
% 13
[V: S1]  [DF] [CE] [B,D] | [A,2C2] [A,C] | [G3/2B3/2] [F/A/] [EG] | [FA] [CG] !sintro![CF] | [DG] [B,D] [CE] | [C2F2] !eintro!|]
w: down where he lay, The lit- tle Lord Je- sus, a- sleep on the hay. 
w: down from the sky And stay by my cra- dle til morn- ing is nigh. 
w: Thy ten- der care, And fit us for Hea- ven to live with thee there. 
[V: S2]  [B,,,3B,,3] | [F,,2F,2] [F,,F,] | [C,,3C,3] | [F,,3F,3] | [B,,,2B,,2] [C,,C,] | [F,,2F,2] |]
% 19


